X: 34710
T: Road To Glencar, The
R: jig
M: 6/8
K: Edorian
|:GFE FED|~E3 EFA|~B3 BAF|GFE DEF|
GFE FED|~E3 ABd|edB AFD|FED E3:|
|:Bee efe|edB def|edB dBA|BAG EDB,
[1 Bee efe|edB GAB|dBA GFE|FED E3:|
[2 Bcd efg|edB GAB|dBA GFE|FED E3||

